X:1
T:St Louis Blues  (Berkman style)
T:AABA
L:1/8
M:4/4
K:E
V:1 treble nm="Piano"
V:1
|:"E""^A""^loose Swing Blues" GBG E2 DCB, |"A7" A,2 C2 =G2 G2 |"E" E4"B7" z4 |"E" z8 | %4
"A7" A,A,CC EE=GG | A2 A2 =GAGE- |"E" E4-"B7" E4 |"E" z6 z A |"B7" B3 G F B,3 | z B,DF BG F2 | %10
"E" E3 E"E/G#" F2 B,2 |"B7" B8 :| %12
"Em7""^B""^Gritty New orleans dirge, heavy triplet feel" B3 =G BB z2 | z B^AB =cB =G2 |"B7" F8 | %15
 z8 | A3 =G AA z2 | z =GA^A B=A G2 |"Em7" E4"F#m" z4 |"B7" z8 |"Em7" B3 =G BB z2 | z B^AB =cB =G2 | %22
"B7" F8 | z8 | A3 =G AA z2 | z =GA^A B=A G2 |"E7" E3 E"E/G#" F2 B,2 |"B7" B8!D.C.! |] %28

